_includes/icons/ios-key.svg

<svg fill="#666" height="50" viewBox="0 0 50 50" width="50" xmlns="http://www.w3.org/2000/svg"><path d="m34 0c-8.820312 0-16 7.175781-16 16 0 1.960938.382813 3.824219 1.03125 5.5625l-18.75 18.71875-.28125.3125v6.8125l.28125.3125 2 2 .3125.28125h6.8125l.3125-.28125 3-3 .28125-.3125v-2.40625h2.40625l.3125-.28125 3-3 .28125-.3125v-1.40625h1.40625l.3125-.28125 2-2 .28125-.3125v-1.40625h1.40625l.3125-.28125 3.71875-3.75c1.738281.648438 3.601563 1.03125 5.5625 1.03125 8.820313 0 16-7.179687 16-16 0-8.824219-7.179687-16-16-16zm0 2c7.738281 0 14 6.257813 14 14 0 7.738281-6.261719 14-14 14-1.921875 0-3.742187-.363281-5.40625-1.0625-.011719-.011719-.019531-.019531-.03125-.03125-5.027344-2.125-8.5625-7.101562-8.5625-12.90625 0-7.742187 6.261719-14 14-14zm0 3c-2.816406 0-5.636719 1.074219-7.78125 3.21875l-.71875.71875.71875.6875 14.15625 14.15625.6875.71875.71875-.71875c4.289063-4.285156 4.289063-11.277344 0-15.5625-2.144531-2.144531-4.964844-3.21875-7.78125-3.21875zm0 2c2.300781 0 4.613281.863281 6.375 2.625 3.273438 3.273438 3.375 8.371094.5625 11.90625l-12.46875-12.46875c1.632813-1.296875 3.554688-2.0625 5.53125-2.0625zm-14.125 16.53125c1.496094 2.796875 3.796875 5.097656 6.59375 6.59375l-2.90625 2.875h-2.5625v2.5625l-1.4375 1.4375h-2.5625v2.5625l-2.4375 2.4375h-3.5625v3.5625l-2.4375 2.4375h-5.125l-1-1 16.5625-16.5625c.359375-.308594.457031-.824219.230469-1.238281-.226563-.417969-.714844-.617188-1.167969-.480469-.191406.042969-.363281.140625-.5.28125l-15.5625 15.59375v-3.15625z"/></svg>

<svg xmlns="http://www.w3.org/2000/svg" viewBox="0 0 50 50" width="50" height="50" fill="#666"><path d="M 34 0 C 25.179688 0 18 7.175781 18 16 C 18 17.960938 18.382813 19.824219 19.03125 21.5625 L 0.28125 40.28125 L 0 40.59375 L 0 47.40625 L 0.28125 47.71875 L 2.28125 49.71875 L 2.59375 50 L 9.40625 50 L 9.71875 49.71875 L 12.71875 46.71875 L 13 46.40625 L 13 44 L 15.40625 44 L 15.71875 43.71875 L 18.71875 40.71875 L 19 40.40625 L 19 39 L 20.40625 39 L 20.71875 38.71875 L 22.71875 36.71875 L 23 36.40625 L 23 35 L 24.40625 35 L 24.71875 34.71875 L 28.4375 30.96875 C 30.175781 31.617188 32.039063 32 34 32 C 42.820313 32 50 24.820313 50 16 C 50 7.175781 42.820313 0 34 0 Z M 34 2 C 41.738281 2 48 8.257813 48 16 C 48 23.738281 41.738281 30 34 30 C 32.078125 30 30.257813 29.636719 28.59375 28.9375 C 28.582031 28.925781 28.574219 28.917969 28.5625 28.90625 C 23.535156 26.78125 20 21.804688 20 16 C 20 8.257813 26.261719 2 34 2 Z M 34 5 C 31.183594 5 28.363281 6.074219 26.21875 8.21875 L 25.5 8.9375 L 26.21875 9.625 L 40.375 23.78125 L 41.0625 24.5 L 41.78125 23.78125 C 46.070313 19.496094 46.070313 12.503906 41.78125 8.21875 C 39.636719 6.074219 36.816406 5 34 5 Z M 34 7 C 36.300781 7 38.613281 7.863281 40.375 9.625 C 43.648438 12.898438 43.75 17.996094 40.9375 21.53125 L 28.46875 9.0625 C 30.101563 7.765625 32.023438 7 34 7 Z M 19.875 23.53125 C 21.371094 26.328125 23.671875 28.628906 26.46875 30.125 L 23.5625 33 L 21 33 L 21 35.5625 L 19.5625 37 L 17 37 L 17 39.5625 L 14.5625 42 L 11 42 L 11 45.5625 L 8.5625 48 L 3.4375 48 L 2.4375 47 L 19 30.4375 C 19.359375 30.128906 19.457031 29.613281 19.230469 29.199219 C 19.003906 28.78125 18.515625 28.582031 18.0625 28.71875 C 17.871094 28.761719 17.699219 28.859375 17.5625 29 L 2 44.59375 L 2 41.4375 Z"/></svg>
